assets/stickers/emoticons/stickers/imgly_sticker_emoticons_beer.svg

<svg height="59" viewBox="0 0 62 59" width="62" xmlns="http://www.w3.org/2000/svg"><g fill="none"><path d="m61.3 34.5c0 13-11.9 23.5-30.3 23.5s-30.3-10.5-30.3-23.5 11.9-32.5 30.3-32.5 30.3 19.5 30.3 32.5z" fill="#f7910b"/><path d="m61.3 34.5c0 13-11.9 19.5-30.3 19.5s-30.3-6.5-30.3-19.5 11.9-34.5 30.3-34.5 30.3 21.5 30.3 34.5z" fill="#f7910b"/><path d="m31 0c18.4 0 30.3 21.5 30.3 34.5s-11.9 19.5-30.3 19.5" fill="#f9a908"/><path d="m61.3 34.5c0 13-11.9 19.5-30.3 19.5s-30.3-6.5-30.3-19.5 11.9-32.5 30.3-32.5 30.3 19.5 30.3 32.5z" fill="#f9a908"/><path d="m.7 34.5c0-13 11.9-32.5 30.3-32.5" fill="#f9c55d"/><path d="m31 2c18.4 0 30.3 19.5 30.3 32.5s-11.9 23.5-30.3 23.5" fill="#f7910b"/><path d="m31 2c18.4 0 30.3 19.5 30.3 32.5" fill="#ea7103"/><circle cx="9.3" cy="31.5" fill="#f7910b" r="1"/><ellipse cx="4.8" cy="33.5" fill="#f7910b" rx="1.1" ry="1.1"/><circle cx="7.8" cy="29.5" fill="#f7910b" r="1"/><ellipse cx="12.4" cy="31.3" fill="#f7910b" rx="1" ry="1"/><ellipse cx="51.6" cy="31.8" fill="#f9a908" rx="1" ry="1"/><circle cx="54.1" cy="33.2" fill="#f9a908" r="1"/><circle cx="48.8" cy="24.4" fill="#f9a908" r="1"/><circle cx="48.3" cy="36" fill="#f9a908" r="1.3"/><circle cx="55.5" cy="36.1" fill="#f9a908" r="1"/><circle cx="8.3" cy="35.5" fill="#f7910b" r="1"/><circle cx="9.1" cy="27.1" fill="#f7910b" r="1"/><g fill="#f9a908"><ellipse cx="3.8" cy="13.3" rx="1.1" ry="1.1"/><ellipse cx="7" cy="9.8" rx="1" ry="1"/><ellipse cx="58.2" cy="15.7" rx="1" ry="1"/><ellipse cx="57.4" cy="12.8" rx="1" ry="1"/><circle cx="60" cy="13.3" r="1"/><ellipse cx="5" cy="16.3" rx="1" ry="1"/></g><path d="m38.4 26.2c0 2.6-3.3 7.2-7.4 7.2s-7.4-4.6-7.4-7.2" fill="#f7910b"/><g transform="translate(15 11)"><ellipse cx="4.6" cy="7.3" fill="#d87703" rx="3.5" ry="3.5"/><path d="m30.9 7.3c0 1.9-1.6 3.5-3.5 3.5s-3.5-1.6-3.5-3.5 1.6-3.5 3.5-3.5c2 0 3.5 1.6 3.5 3.5z" fill="#d87703"/><ellipse cx="4.6" cy="6.3" fill="#1e4784" rx="3.5" ry="3.5"/><path d="m4.6 2.8c1.9 0 3.5 1.6 3.5 3.5s-1.6 3.5-3.5 3.5" fill="#00233f"/><path d="m30.9 6.3c0 1.9-1.6 3.5-3.5 3.5s-3.5-1.6-3.5-3.5 1.6-3.5 3.5-3.5c2 0 3.5 1.6 3.5 3.5z" fill="#1e4784"/><path d="m27.4 2.8c1.9 0 3.5 1.6 3.5 3.5s-1.6 3.5-3.5 3.5" fill="#00233f"/><path d="m.5 5.6c0-2.3 1.8-5.1 4.1-5.1s4.1 2.8 4.1 5.1" fill="#f9a908"/><path d="m23.3 5.6c0-2.3 1.8-5.1 4.1-5.1s4.1 2.8 4.1 5.1" fill="#f7910b"/></g><g transform="translate(11 20)"><path d="m15.8 3.1c0 1.2-3.5.7-7.8.7s-7.8.6-7.8-.7 3.5-2.2 7.8-2.2 7.8 1 7.8 2.2z" fill="#f9c55d"/><path d="m39.8 3.1c0 1.2-3.5.7-7.8.7s-7.8.6-7.8-.7 3.5-2.2 7.8-2.2 7.8 1 7.8 2.2z" fill="#f9a908"/></g><g fill="#19bca4" transform="translate(15 8)"><path d="m10.6 8.4c-.3 1.1-2.3-.1-5-.8-2.7-.8-5-.8-4.7-1.9s2.7-1.3 5.4-.6c2.6.7 4.6 2.2 4.3 3.3z"/><path d="m21.8 5.3c.4 1 2.3-.4 4.9-1.5s4.9-1.5 4.4-2.5c-.4-1-2.9-1-5.5.2-2.5 1.1-4.2 2.8-3.8 3.8z"/></g><path d="m33.2 26.8h-4.3c-.6 0-1.1-.5-1.1-1.1s.5-1.1 1.1-1.1h4.3c.6 0 1.1.5 1.1 1.1s-.5 1.1-1.1 1.1z" fill="#02243e"/><g transform="translate(0 19)"><path d="m2.7 4.8v30.8c0 2.6 2.5 3.5 5.6 3.5h13.9c3.1 0 5.6-.9 5.6-3.5v-30.8z" fill="#fffcee"/><path d="m22.2 39c3.1 0 5.6-.9 5.6-3.5v-30.7h-25.1" fill="#e8e3cd"/><path d="m4.9 10.9v23.5c0 2.1 2.1 2.9 4.6 2.9h11.5c2.6 0 4.6-.7 4.6-2.9v-23.5z" fill="#f4cf31"/><path d="m21 37.3c2.6 0 4.6-.7 4.6-2.9v-23.5h-20.7" fill="#f2b233"/><g fill="#f7df77" transform="translate(8 7)"><path d="m2.1 26.3c0 .6-.4 1.1-.9 1.1-.5 0-.9-.5-.9-1.1v-24.5c0-.6.4-1.1.9-1.1.5 0 .9.5.9 1.1z"/><path d="m8.2 26.3c0 .6-.4 1.1-.9 1.1-.5 0-.9-.5-.9-1.1v-24.5c0-.6.4-1.1.9-1.1.5 0 .9.5.9 1.1z"/><path d="m14.2 26.3c0 .6-.4 1.1-.9 1.1-.5 0-.9-.5-.9-1.1v-24.5c0-.6.4-1.1.9-1.1.5 0 .9.5.9 1.1z"/></g><ellipse cx="12.1" cy="5.8" fill="#fcf0be" rx="4" ry="3.3"/><path d="m28.7 3.8c.4-.4.6-.9.6-1.4 0-1.3-1.2-2.3-2.8-2.3-.7 0-1.2.2-1.7.5-.5-.3-1.1-.4-1.8-.4-.8 0-1.6.3-2.2.7-.5-.5-1.3-.8-2.1-.8-.6 0-1.2.2-1.6.5-.3-.1-.7-.2-1-.2s-.5 0-.8.1c-.2-.1-.5-.1-.8-.1-.4 0-.7.1-1 .2-.5-.3-1-.5-1.6-.5-.9 0-1.6.3-2.1.8-.6-.4-1.3-.7-2.2-.7-.6 0-1.2.2-1.7.4-.5-.3-1.1-.5-1.7-.5-1.5 0-2.8 1-2.8 2.3 0 .5.2 1 .6 1.4-.7.6-1.2 1.4-1.2 2.4 0 1.8 1.8 3.3 4 3.3.5 0 1.1-.1 1.5-.3.7.8 1.8 1.3 3.1 1.3 1.4 0 2.5-.6 3.3-1.4.4.6 1.3 1 2.2 1 .2 0 .4 0 .6-.1.2 0 .4.1.6.1.9 0 1.7-.4 2.2-1 .7.9 1.9 1.4 3.3 1.4 1.3 0 2.4-.5 3.1-1.3.5.2 1 .3 1.5.3 2.2 0 4-1.5 4-3.3-.3-1-.8-1.8-1.5-2.4z" fill="#f9f9d9"/><path d="m13.4 14.2c0 .4-.3.6-.8.6s-.8-.3-.8-.6c0-.4.3-.6.8-.6s.8.3.8.6z" fill="#fff399"/><ellipse cx="12" cy="29.2" fill="#f2b233" rx="1" ry="1"/><g fill="#fff399"><ellipse cx="11.7" cy="16.7" rx="1" ry="1"/><ellipse cx="11.4" cy="24.7" rx="1" ry="1"/><path d="m12.9 18.1c0 .2-.2.3-.4.3s-.4-.1-.4-.3.2-.3.4-.3.4.1.4.3z"/></g><ellipse cx="11" cy="23.2" fill="#f2b233" rx="1" ry="1"/><ellipse cx="13.5" cy="27.7" fill="#fff399" rx="1" ry="1"/><ellipse cx="11.8" cy="26.7" fill="#fff399" rx="1" ry="1"/><ellipse cx="12.2" cy="25.5" fill="#f2b233" rx="1" ry="1"/><path d="m6.6 34.4c0 .2-.2.4-.5.4-.3 0-.5-.2-.5-.4v-13.9c0-.2.2-.4.5-.4.3 0 .5.2.5.4z" fill="#fff0b3"/><path d="m6.6 18.7c0 .1-.2.1-.5.1-.3 0-.5-.1-.5-.1v-4.5c0-.1.2-.1.5-.1.3 0 .5.1.5.1z" fill="#fff0b3"/><path d="m28.7 3.8c.4-.4.6-.9.6-1.4 0-1.3-1.2-2.3-2.8-2.3-.7 0-1.2.2-1.7.5-.5-.3-1.1-.4-1.8-.4-.8 0-1.6.3-2.2.7-.5-.5-1.3-.8-2.1-.8-.6 0-1.2.2-1.6.5-.3-.1-.7-.2-1-.2-.2 0-.5 0-.7.1v9.5c.2 0 .3.1.5.1.9 0 1.7-.4 2.2-1 .7.9 1.9 1.4 3.3 1.4 1.3 0 2.4-.5 3.1-1.3.5.2 1 .3 1.5.3 2.2 0 4-1.5 4-3.3-.1-1-.6-1.8-1.3-2.4z" fill="#fcf0be"/><path d="m28.1 11.2h-.2v1.9h.2c1.5 0 2.7 1 2.7 2.3v12.4c0 1.2-1.2 2.3-2.7 2.3h-.2v1.9h.2c2.7 0 4.9-1.8 4.9-4.1v-12.6c0-2.2-2.2-4.1-4.9-4.1z" fill="#fffcee"/><ellipse cx="3.9" cy="1.9" fill="#fff" rx="1.2" ry="1"/><path d="m9.5 2.5c0 .6-.5 1-1.2 1s-1.2-.4-1.2-1c0-.5.5-1 1.2-1s1.2.5 1.2 1z" fill="#fff"/><ellipse cx="3.5" cy="6" fill="#fff" rx="1" ry="1"/></g></g></svg>

<?xml version="1.0" encoding="UTF-8"?>
<svg width="62px" height="59px" viewBox="0 0 62 59" version="1.1" xmlns="http://www.w3.org/2000/svg" xmlns:xlink="http://www.w3.org/1999/xlink">
    <!-- Generator: Sketch 43.1 (39012) - http://www.bohemiancoding.com/sketch -->
    <title>imgly_sticker_emoticons_beer</title>
    <desc>Created with Sketch.</desc>
    <defs></defs>
    <g id="Page-1" stroke="none" stroke-width="1" fill="none" fill-rule="evenodd">
        <g id="beer" fill-rule="nonzero">
            <g id="Group">
                <g>
                    <path d="M61.3,34.5 C61.3,47.5 49.4,58 31,58 C12.6,58 0.7,47.5 0.7,34.5 C0.7,21.5 12.6,2 31,2 C49.4,2 61.3,21.5 61.3,34.5 Z" id="Shape" fill="#F7910B"></path>
                    <path d="M61.3,34.5 C61.3,47.5 49.4,54 31,54 C12.6,54 0.7,47.5 0.7,34.5 C0.7,21.5 12.6,0 31,0 C49.4,0 61.3,21.5 61.3,34.5 Z" id="Shape" fill="#F7910B"></path>
                    <path d="M31,0 C49.4,0 61.3,21.5 61.3,34.5 C61.3,47.5 49.4,54 31,54" id="Shape" fill="#F9A908"></path>
                    <path d="M61.3,34.5 C61.3,47.5 49.4,54 31,54 C12.6,54 0.7,47.5 0.7,34.5 C0.7,21.5 12.6,2 31,2 C49.4,2 61.3,21.5 61.3,34.5 Z" id="Shape" fill="#F9A908"></path>
                    <path d="M0.7,34.5 C0.7,21.5 12.6,2 31,2" id="Shape" fill="#F9C55D"></path>
                    <path d="M31,2 C49.4,2 61.3,21.5 61.3,34.5 C61.3,47.5 49.4,58 31,58" id="Shape" fill="#F7910B"></path>
                    <path d="M31,2 C49.4,2 61.3,21.5 61.3,34.5" id="Shape" fill="#EA7103"></path>
                    <circle id="Oval" fill="#F7910B" cx="9.3" cy="31.5" r="1"></circle>
                    <ellipse id="Oval" fill="#F7910B" cx="4.8" cy="33.5" rx="1.1" ry="1.1"></ellipse>
                    <circle id="Oval" fill="#F7910B" cx="7.8" cy="29.5" r="1"></circle>
                    <ellipse id="Oval" fill="#F7910B" cx="12.4" cy="31.3" rx="1" ry="1"></ellipse>
                    <ellipse id="Oval" fill="#F9A908" cx="51.6" cy="31.8" rx="1" ry="1"></ellipse>
                    <circle id="Oval" fill="#F9A908" cx="54.1" cy="33.2" r="1"></circle>
                    <circle id="Oval" fill="#F9A908" cx="48.8" cy="24.4" r="1"></circle>
                    <circle id="Oval" fill="#F9A908" cx="48.3" cy="36" r="1.3"></circle>
                    <circle id="Oval" fill="#F9A908" cx="55.5" cy="36.1" r="1"></circle>
                    <circle id="Oval" fill="#F7910B" cx="8.3" cy="35.5" r="1"></circle>
                    <circle id="Oval" fill="#F7910B" cx="9.1" cy="27.1" r="1"></circle>
                    <ellipse id="Oval" fill="#F9A908" cx="3.8" cy="13.3" rx="1.1" ry="1.1"></ellipse>
                    <ellipse id="Oval" fill="#F9A908" cx="7" cy="9.8" rx="1" ry="1"></ellipse>
                    <ellipse id="Oval" fill="#F9A908" cx="58.2" cy="15.7" rx="1" ry="1"></ellipse>
                    <ellipse id="Oval" fill="#F9A908" cx="57.4" cy="12.8" rx="1" ry="1"></ellipse>
                    <circle id="Oval" fill="#F9A908" cx="60" cy="13.3" r="1"></circle>
                    <ellipse id="Oval" fill="#F9A908" cx="5" cy="16.3" rx="1" ry="1"></ellipse>
                    <path d="M38.4,26.2 C38.4,28.8 35.1,33.4 31,33.4 C26.9,33.4 23.6,28.8 23.6,26.2" id="Shape" fill="#F7910B"></path>
                    <g transform="translate(15.000000, 11.000000)">
                        <ellipse id="Oval" fill="#D87703" cx="4.6" cy="7.3" rx="3.5" ry="3.5"></ellipse>
                        <path d="M30.9,7.3 C30.9,9.2 29.3,10.8 27.4,10.8 C25.5,10.8 23.9,9.2 23.9,7.3 C23.9,5.4 25.5,3.8 27.4,3.8 C29.4,3.8 30.9,5.4 30.9,7.3 Z" id="Shape" fill="#D87703"></path>
                        <ellipse id="Oval" fill="#1E4784" cx="4.6" cy="6.3" rx="3.5" ry="3.5"></ellipse>
                        <path d="M4.6,2.8 C6.5,2.8 8.1,4.4 8.1,6.3 C8.1,8.2 6.5,9.8 4.6,9.8" id="Shape" fill="#00233F"></path>
                        <path d="M30.9,6.3 C30.9,8.2 29.3,9.8 27.4,9.8 C25.5,9.8 23.9,8.2 23.9,6.3 C23.9,4.4 25.5,2.8 27.4,2.8 C29.4,2.8 30.9,4.4 30.9,6.3 Z" id="Shape" fill="#1E4784"></path>
                        <path d="M27.4,2.8 C29.3,2.8 30.9,4.4 30.9,6.3 C30.9,8.2 29.3,9.8 27.4,9.8" id="Shape" fill="#00233F"></path>
                        <path d="M0.5,5.6 C0.5,3.3 2.3,0.5 4.6,0.5 C6.9,0.5 8.7,3.3 8.7,5.6" id="Shape" fill="#F9A908"></path>
                        <path d="M23.3,5.6 C23.3,3.3 25.1,0.5 27.4,0.5 C29.7,0.5 31.5,3.3 31.5,5.6" id="Shape" fill="#F7910B"></path>
                    </g>
                    <g transform="translate(11.000000, 20.000000)" id="Shape">
                        <path d="M15.8,3.1 C15.8,4.3 12.3,3.8 8,3.8 C3.7,3.8 0.2,4.4 0.2,3.1 C0.2,1.8 3.7,0.9 8,0.9 C12.3,0.9 15.8,1.9 15.8,3.1 Z" fill="#F9C55D"></path>
                        <path d="M39.8,3.1 C39.8,4.3 36.3,3.8 32,3.8 C27.7,3.8 24.2,4.4 24.2,3.1 C24.2,1.8 27.7,0.9 32,0.9 C36.3,0.9 39.8,1.9 39.8,3.1 Z" fill="#F9A908"></path>
                    </g>
                    <g transform="translate(15.000000, 8.000000)" id="Shape" fill="#19BCA4">
                        <path d="M10.6,8.4 C10.3,9.5 8.3,8.3 5.6,7.6 C2.9,6.8 0.6,6.8 0.9,5.7 C1.2,4.6 3.6,4.4 6.3,5.1 C8.9,5.8 10.9,7.3 10.6,8.4 Z"></path>
                        <path d="M21.8,5.3 C22.2,6.3 24.1,4.9 26.7,3.8 C29.3,2.7 31.6,2.3 31.1,1.3 C30.7,0.3 28.2,0.3 25.6,1.5 C23.1,2.6 21.4,4.3 21.8,5.3 Z"></path>
                    </g>
                </g>
                <path d="M33.2,26.8 L28.9,26.8 C28.3,26.8 27.8,26.3 27.8,25.7 C27.8,25.1 28.3,24.6 28.9,24.6 L33.2,24.6 C33.8,24.6 34.3,25.1 34.3,25.7 C34.3,26.3 33.8,26.8 33.2,26.8 Z" id="Shape" fill="#02243E"></path>
            </g>
            <g id="Group" transform="translate(0.000000, 19.000000)">
                <path d="M2.7,4.8 L2.7,35.6 C2.7,38.2 5.2,39.1 8.3,39.1 L22.2,39.1 C25.3,39.1 27.8,38.2 27.8,35.6 L27.8,4.8 L2.7,4.8 Z" id="Shape" fill="#FFFCEE"></path>
                <path d="M22.2,39 C25.3,39 27.8,38.1 27.8,35.5 L27.8,4.8 L2.7,4.8" id="Shape" fill="#E8E3CD"></path>
                <path d="M4.9,10.9 L4.9,34.4 C4.9,36.5 7,37.3 9.5,37.3 L21,37.3 C23.6,37.3 25.6,36.6 25.6,34.4 L25.6,10.9 L4.9,10.9 Z" id="Shape" fill="#F4CF31"></path>
                <path d="M21,37.3 C23.6,37.3 25.6,36.6 25.6,34.4 L25.6,10.9 L4.9,10.9" id="Shape" fill="#F2B233"></path>
                <g transform="translate(8.000000, 7.000000)" id="Shape" fill="#F7DF77">
                    <path d="M2.1,26.3 C2.1,26.9 1.7,27.4 1.2,27.4 L1.2,27.4 C0.7,27.4 0.3,26.9 0.3,26.3 L0.3,1.8 C0.3,1.2 0.7,0.7 1.2,0.7 L1.2,0.7 C1.7,0.7 2.1,1.2 2.1,1.8 L2.1,26.3 Z"></path>
                    <path d="M8.2,26.3 C8.2,26.9 7.8,27.4 7.3,27.4 L7.3,27.4 C6.8,27.4 6.4,26.9 6.4,26.3 L6.4,1.8 C6.4,1.2 6.8,0.7 7.3,0.7 L7.3,0.7 C7.8,0.7 8.2,1.2 8.2,1.8 L8.2,26.3 Z"></path>
                    <path d="M14.2,26.3 C14.2,26.9 13.8,27.4 13.3,27.4 L13.3,27.4 C12.8,27.4 12.4,26.9 12.4,26.3 L12.4,1.8 C12.4,1.2 12.8,0.7 13.3,0.7 L13.3,0.7 C13.8,0.7 14.2,1.2 14.2,1.8 L14.2,26.3 Z"></path>
                </g>
                <ellipse id="Oval" fill="#FCF0BE" cx="12.1" cy="5.8" rx="4" ry="3.3"></ellipse>
                <path d="M28.7,3.8 C29.1,3.4 29.3,2.9 29.3,2.4 C29.3,1.1 28.1,0.1 26.5,0.1 C25.8,0.1 25.3,0.3 24.8,0.6 C24.3,0.3 23.7,0.2 23,0.2 C22.2,0.2 21.4,0.5 20.8,0.9 C20.3,0.4 19.5,0.1 18.7,0.1 C18.1,0.1 17.5,0.3 17.1,0.6 C16.8,0.5 16.4,0.4 16.1,0.4 C15.8,0.4 15.6,0.4 15.3,0.5 C15.1,0.4 14.8,0.4 14.5,0.4 C14.1,0.4 13.8,0.5 13.5,0.6 C13,0.3 12.5,0.1 11.9,0.1 C11,0.1 10.3,0.4 9.8,0.9 C9.2,0.5 8.5,0.2 7.6,0.2 C7,0.2 6.4,0.4 5.9,0.6 C5.4,0.3 4.8,0.1 4.2,0.1 C2.7,0.1 1.4,1.1 1.4,2.4 C1.4,2.9 1.6,3.4 2,3.8 C1.3,4.4 0.8,5.2 0.8,6.2 C0.8,8 2.6,9.5 4.8,9.5 C5.3,9.5 5.9,9.4 6.3,9.2 C7,10 8.1,10.5 9.4,10.5 C10.8,10.5 11.9,9.9 12.7,9.1 C13.1,9.7 14,10.1 14.9,10.1 C15.1,10.1 15.3,10.1 15.5,10 C15.7,10 15.9,10.1 16.1,10.1 C17,10.1 17.8,9.7 18.3,9.1 C19,10 20.2,10.5 21.6,10.5 C22.9,10.5 24,10 24.7,9.2 C25.2,9.4 25.7,9.5 26.2,9.5 C28.4,9.5 30.2,8 30.2,6.2 C29.9,5.2 29.4,4.4 28.7,3.8 Z" id="Shape" fill="#F9F9D9"></path>
                <path d="M13.4,14.2 C13.4,14.6 13.1,14.8 12.6,14.8 C12.1,14.8 11.8,14.5 11.8,14.2 C11.8,13.8 12.1,13.6 12.6,13.6 C13.1,13.6 13.4,13.9 13.4,14.2 Z" id="Shape" fill="#FFF399"></path>
                <ellipse id="Oval" fill="#F2B233" cx="12" cy="29.2" rx="1" ry="1"></ellipse>
                <ellipse id="Oval" fill="#FFF399" cx="11.7" cy="16.7" rx="1" ry="1"></ellipse>
                <ellipse id="Oval" fill="#FFF399" cx="11.4" cy="24.7" rx="1" ry="1"></ellipse>
                <path d="M12.9,18.1 C12.9,18.3 12.7,18.4 12.5,18.4 C12.3,18.4 12.1,18.3 12.1,18.1 C12.1,17.9 12.3,17.8 12.5,17.8 C12.7,17.8 12.9,17.9 12.9,18.1 Z" id="Shape" fill="#FFF399"></path>
                <ellipse id="Oval" fill="#F2B233" cx="11" cy="23.2" rx="1" ry="1"></ellipse>
                <ellipse id="Oval" fill="#FFF399" cx="13.5" cy="27.7" rx="1" ry="1"></ellipse>
                <ellipse id="Oval" fill="#FFF399" cx="11.8" cy="26.7" rx="1" ry="1"></ellipse>
                <ellipse id="Oval" fill="#F2B233" cx="12.2" cy="25.5" rx="1" ry="1"></ellipse>
                <path d="M6.6,34.4 C6.6,34.6 6.4,34.8 6.1,34.8 L6.1,34.8 C5.8,34.8 5.6,34.6 5.6,34.4 L5.6,20.5 C5.6,20.3 5.8,20.1 6.1,20.1 L6.1,20.1 C6.4,20.1 6.6,20.3 6.6,20.5 L6.6,34.4 Z" id="Shape" fill="#FFF0B3"></path>
                <path d="M6.6,18.7 C6.6,18.8 6.4,18.8 6.1,18.8 L6.1,18.8 C5.8,18.8 5.6,18.7 5.6,18.7 L5.6,14.2 C5.6,14.1 5.8,14.1 6.1,14.1 L6.1,14.1 C6.4,14.1 6.6,14.2 6.6,14.2 L6.6,18.7 Z" id="Shape" fill="#FFF0B3"></path>
                <path d="M28.7,3.8 C29.1,3.4 29.3,2.9 29.3,2.4 C29.3,1.1 28.1,0.1 26.5,0.1 C25.8,0.1 25.3,0.3 24.8,0.6 C24.3,0.3 23.7,0.2 23,0.2 C22.2,0.2 21.4,0.5 20.8,0.9 C20.3,0.4 19.5,0.1 18.7,0.1 C18.1,0.1 17.5,0.3 17.1,0.6 C16.8,0.5 16.4,0.4 16.1,0.4 C15.9,0.4 15.6,0.4 15.4,0.5 L15.4,10 C15.6,10 15.7,10.1 15.9,10.1 C16.8,10.1 17.6,9.7 18.1,9.1 C18.8,10 20,10.5 21.4,10.5 C22.7,10.5 23.8,10 24.5,9.2 C25,9.4 25.5,9.5 26,9.5 C28.2,9.5 30,8 30,6.2 C29.9,5.2 29.4,4.4 28.7,3.8 Z" id="Shape" fill="#FCF0BE"></path>
                <path d="M28.1,11.2 L27.9,11.2 L27.9,13.1 L28.1,13.1 C29.6,13.1 30.8,14.1 30.8,15.4 L30.8,27.8 C30.8,29 29.6,30.1 28.1,30.1 L27.9,30.1 L27.9,32 L28.1,32 C30.8,32 33,30.2 33,27.9 L33,15.3 C33,13.1 30.8,11.2 28.1,11.2 Z" id="Shape" fill="#FFFCEE"></path>
                <ellipse id="Oval" fill="#FFFFFF" cx="3.9" cy="1.9" rx="1.2" ry="1"></ellipse>
                <path d="M9.5,2.5 C9.5,3.1 9,3.5 8.3,3.5 C7.6,3.5 7.1,3.1 7.1,2.5 C7.1,2 7.6,1.5 8.3,1.5 C9,1.5 9.5,2 9.5,2.5 Z" id="Shape" fill="#FFFFFF"></path>
                <ellipse id="Oval" fill="#FFFFFF" cx="3.5" cy="6" rx="1" ry="1"></ellipse>
            </g>
        </g>
    </g>
</svg>
